src/assets/icon/company/Vodafone.svg

<svg width="200" height="80" viewBox="0 0 200 80" fill="none" xmlns="http://www.w3.org/2000/svg">
<path fill-rule="evenodd" clip-rule="evenodd" d="M58.9962 40C58.9962 51.0453 50.0452 60 39 60C27.9546 60 19 51.0453 19 40C19 28.9547 27.9546 20 39 20C50.0453 20 58.9962 28.9547 58.9962 40ZM39.1574 51.1539C33.6641 51.1726 27.9465 46.4837 27.921 38.9511C27.9026 33.9721 30.5923 29.1771 34.0241 26.333C37.3751 23.5625 41.9646 21.7804 46.124 21.7656C46.6605 21.7656 47.2227 21.8097 47.5644 21.9273C43.9267 22.6806 41.0313 26.0684 41.0423 29.9082C41.0423 30.0368 41.0533 30.1727 41.0679 30.2352C47.1564 31.7197 49.9196 35.3941 49.938 40.4758C49.9527 45.5613 45.9405 51.1319 39.1574 51.1539ZM65.7969 33.6845L71.9112 48.2757L75.1816 48.2758L81.1157 33.6845H77.3017L73.6052 43.374L69.7911 33.6845H65.7969ZM91.5437 39.174C91.6871 39.7215 91.7568 40.2984 91.7568 40.9047C91.7568 41.5331 91.687 42.1174 91.5436 42.6538C91.4041 43.1902 91.191 43.6606 90.908 44.0648C90.6251 44.469 90.2834 44.7886 89.8792 45.0238C89.475 45.2552 89.001 45.3729 88.4571 45.3729C87.9134 45.3729 87.432 45.2552 87.0204 45.0238C86.6052 44.7886 86.2598 44.469 85.9879 44.0648C85.716 43.6606 85.5103 43.1903 85.3706 42.6538C85.2273 42.1174 85.1575 41.5331 85.1575 40.9048C85.1575 40.2984 85.2273 39.7216 85.3707 39.174C85.5103 38.6267 85.7234 38.1563 86.0063 37.7631C86.2855 37.3662 86.631 37.0539 87.0351 36.8224C87.4357 36.5873 87.9134 36.4697 88.4572 36.4697C89.001 36.4697 89.475 36.5873 89.8792 36.8224C90.2834 37.0539 90.6251 37.3662 90.9081 37.7631C91.191 38.1563 91.404 38.6267 91.5437 39.174ZM95.0124 43.7243C95.3026 42.8057 95.4497 41.8724 95.4497 40.9208C95.4497 39.9727 95.3026 39.0468 95.0124 38.1355C94.7184 37.228 94.2812 36.4159 93.6932 35.6994C93.109 34.9829 92.3814 34.4097 91.5144 33.9761C90.6472 33.5426 89.6256 33.322 88.4572 33.322C87.285 33.322 86.2599 33.5425 85.3853 33.9761C84.5071 34.4097 83.7796 34.9829 83.2027 35.6994C82.6295 36.4159 82.196 37.228 81.902 38.1355C81.6117 39.0468 81.4647 39.9727 81.4647 40.9208C81.4647 41.8724 81.6117 42.8057 81.902 43.7243C82.196 44.6429 82.6295 45.4624 83.2027 46.1899C83.7796 46.9174 84.5071 47.5017 85.3853 47.9462C86.2599 48.3908 87.285 48.6114 88.4572 48.6114C89.6256 48.6114 90.6508 48.3909 91.529 47.9462C92.4072 47.5017 93.1347 46.9174 93.7079 46.1899C94.2848 45.4624 94.7184 44.6429 95.0124 43.7243ZM104.705 36.4697C105.33 36.4697 106.003 36.613 106.727 36.896V44.1273C106.524 44.469 106.183 44.7702 105.701 45.0238C105.22 45.2737 104.75 45.4023 104.287 45.4023C103.724 45.4023 103.236 45.2736 102.824 45.0238C102.413 44.7702 102.071 44.4359 101.803 44.0207C101.531 43.6055 101.329 43.1167 101.2 42.5619C101.068 42.0034 101.002 41.4228 101.002 40.8165C101.001 40.2768 101.078 39.7398 101.23 39.2218C101.38 38.7038 101.604 38.2372 101.906 37.8219C102.207 37.4067 102.589 37.0795 103.052 36.8371C103.511 36.5948 104.066 36.4697 104.705 36.4697ZM106.877 47.1586L107.028 48.2757H110.478V28.0846H106.727V33.7433C105.841 33.464 105.014 33.3208 104.25 33.3208C103.085 33.3208 102.067 33.5412 101.204 33.9748C100.337 34.4083 99.6201 34.9815 99.0432 35.6981C98.4701 36.4146 98.0438 37.2266 97.7609 38.1342C97.4826 39.0364 97.3413 39.9753 97.342 40.9194C97.342 41.93 97.4779 42.8999 97.7461 43.826C98.0181 44.7555 98.4186 45.575 98.9404 46.2805C99.4621 46.9859 100.105 47.5518 100.873 47.9744C101.634 48.397 102.523 48.61 103.526 48.61C104.29 48.61 104.955 48.463 105.518 48.1691C106.083 47.8788 106.535 47.5408 106.877 47.1586ZM119.796 41.5406C120.223 41.4929 120.642 41.4551 121.046 41.4338V44.4029C120.722 44.7042 120.329 44.9576 119.874 45.1598C119.427 45.3592 118.944 45.4618 118.455 45.4611C117.805 45.4611 117.305 45.3141 116.949 45.0238C116.592 44.7299 116.416 44.3404 116.416 43.859C116.416 43.3924 116.574 42.9662 116.886 42.5694C117.202 42.1762 117.764 41.9005 118.58 41.7389C118.983 41.6553 119.388 41.5891 119.796 41.5406ZM121.2 47.1733L121.347 48.2646H124.772V38.8875C124.772 37.899 124.636 37.0576 124.364 36.3632C124.088 35.6651 123.71 35.0918 123.228 34.6398C122.743 34.1842 122.166 33.8535 121.501 33.6404C120.836 33.4274 120.098 33.3208 119.289 33.3208C118.606 33.3208 117.963 33.3869 117.368 33.5191C116.772 33.6514 116.24 33.8129 115.766 34.0041C115.288 34.1952 114.887 34.3936 114.553 34.5957C114.219 34.7978 113.972 34.9669 113.811 35.1101L115.053 37.741C115.196 37.6198 115.383 37.4839 115.615 37.3332C115.85 37.1825 116.118 37.0319 116.423 36.8776C116.728 36.727 117.07 36.6019 117.456 36.5028C117.842 36.3998 118.249 36.3484 118.676 36.3484C119.403 36.3484 119.977 36.5211 120.392 36.8629C120.811 37.2083 121.016 37.7814 121.016 38.5898V38.8028C120.631 38.8434 120.149 38.8874 119.572 38.9389C118.995 38.9903 118.463 39.0638 117.978 39.163C117.291 39.2843 116.629 39.4682 116.004 39.7106C115.376 39.953 114.818 40.2654 114.333 40.6476C113.844 41.0333 113.462 41.5 113.179 42.0549C112.892 42.6096 112.753 43.2528 112.753 43.9766C112.753 44.7042 112.888 45.3545 113.164 45.9314C113.436 46.5082 113.796 46.9896 114.241 47.3828C114.685 47.776 115.196 48.0811 115.777 48.2904C116.35 48.5034 116.956 48.61 117.584 48.61C118.334 48.61 119.021 48.4815 119.65 48.2279C120.278 47.9744 120.792 47.6216 121.2 47.1733ZM135.659 31.1564C136.012 31.2668 136.247 31.355 136.368 31.4137L136.791 28.2978C136.691 28.2353 136.342 28.1215 135.747 27.9488C135.152 27.776 134.402 27.6914 133.495 27.6914C132.808 27.6914 132.172 27.7868 131.584 27.9781C131 28.1691 130.489 28.4741 130.055 28.8892C129.622 29.3008 129.284 29.8373 129.041 30.4913C128.799 31.1491 128.678 31.9501 128.678 32.8981V33.6845H126.741V36.7121H128.678V48.2757H132.433V36.7121H135.552V33.6845H132.403V32.99C132.403 32.2844 132.58 31.7737 132.933 31.4614C133.285 31.1492 133.726 30.991 134.248 30.991C134.836 30.991 135.303 31.0463 135.659 31.1564ZM146.388 39.174C146.528 39.7215 146.602 40.2984 146.602 40.9047C146.602 41.5331 146.528 42.1174 146.388 42.6538C146.249 43.1902 146.036 43.6606 145.753 44.0648C145.47 44.469 145.128 44.7886 144.724 45.0238C144.32 45.2552 143.846 45.3729 143.302 45.3729C142.758 45.3729 142.277 45.2552 141.861 45.0238C141.45 44.7886 141.104 44.469 140.833 44.0648C140.561 43.6606 140.355 43.1903 140.212 42.6538C140.072 42.1174 140.002 41.5331 140.002 40.9048C140.002 40.2984 140.072 39.7216 140.212 39.174C140.355 38.6267 140.568 38.1563 140.847 37.7631C141.13 37.3662 141.476 37.0539 141.88 36.8224C142.28 36.5873 142.758 36.4697 143.302 36.4697C143.846 36.4697 144.32 36.5873 144.724 36.8224C145.128 37.0539 145.47 37.3662 145.753 37.7631C146.036 38.1563 146.249 38.6267 146.388 39.174ZM149.853 43.7243C150.147 42.8057 150.294 41.8724 150.294 40.9208C150.294 39.9727 150.147 39.0468 149.853 38.1355C149.563 37.228 149.126 36.4159 148.538 35.6994C147.954 34.9829 147.226 34.4097 146.359 33.9761C145.492 33.5426 144.47 33.322 143.302 33.322C142.13 33.322 141.105 33.5425 140.23 33.9761C139.352 34.4097 138.624 34.9829 138.047 35.6994C137.474 36.4159 137.041 37.228 136.747 38.1355C136.453 39.0468 136.309 39.9727 136.309 40.9208C136.308 41.8724 136.456 42.8183 136.747 43.7243C137.041 44.6429 137.474 45.4624 138.047 46.1899C138.624 46.9174 139.352 47.5017 140.23 47.9462C141.104 48.3908 142.13 48.6114 143.302 48.6114C144.47 48.6114 145.496 48.3909 146.374 47.9462C147.252 47.5017 147.979 46.9174 148.553 46.1899C149.13 45.4624 149.563 44.6429 149.853 43.7243ZM161.946 39.953V48.2757H165.701V39.6481C165.701 38.52 165.573 37.55 165.323 36.7416C165.069 35.9369 164.713 35.2792 164.246 34.7758C163.783 34.2725 163.228 33.9049 162.582 33.6698C161.935 33.4382 161.229 33.3244 160.462 33.3244C159.716 33.3244 158.973 33.453 158.238 33.7175C157.517 33.9711 156.845 34.3492 156.254 34.8346L156.074 33.6845H152.653V48.2757H156.405V37.9248C156.769 37.561 157.199 37.2266 157.695 36.9254C158.187 36.6203 158.727 36.4698 159.311 36.4698C160.142 36.4698 160.785 36.7746 161.251 37.3773C161.714 37.9836 161.946 38.8434 161.946 39.953ZM177.059 37.9101C177.232 38.2813 177.338 38.7221 177.379 39.2255L171.808 39.2256C171.911 38.2555 172.256 37.5317 172.844 37.0466C173.432 36.5615 174.05 36.3191 174.7 36.3191C175.005 36.3191 175.302 36.3743 175.6 36.4844C175.894 36.5984 176.166 36.7673 176.42 37.0026C176.673 37.234 176.886 37.5353 177.059 37.9101ZM172.874 44.5828C172.183 44.039 171.801 43.1498 171.72 41.9189L181.193 41.9188V41.2537C181.193 39.8611 181.027 38.6596 180.693 37.6528C180.362 36.6424 179.907 35.8193 179.333 35.1835C178.756 34.5479 178.077 34.0775 177.29 33.7764C176.5 33.4751 175.644 33.3207 174.715 33.3207C173.785 33.3207 172.914 33.4934 172.095 33.8351C171.279 34.1805 170.562 34.6765 169.945 35.3196C169.332 35.9663 168.847 36.7636 168.494 37.7116C168.141 38.6596 167.965 39.7509 167.965 40.9818C167.965 42.2936 168.156 43.4253 168.542 44.3734C168.924 45.3214 169.438 46.1114 170.085 46.7471C170.728 47.3827 171.481 47.8531 172.337 48.158C173.197 48.4594 174.097 48.61 175.049 48.61C175.795 48.61 176.482 48.5548 177.107 48.4447C177.731 48.3308 178.279 48.2021 178.742 48.0515C179.205 47.8972 179.594 47.7393 179.907 47.5665C180.219 47.3937 180.447 47.2578 180.59 47.1586L179.591 44.0979C179.466 44.2191 179.286 44.3514 179.043 44.4946C178.801 44.6343 178.507 44.7775 178.161 44.9172C177.816 45.0605 177.419 45.1745 176.974 45.2663C176.53 45.3545 176.052 45.4023 175.545 45.4023C174.454 45.4023 173.561 45.1267 172.874 44.5828Z" fill="white"/>
</svg>

<svg width="200" height="80" fill="none" xmlns="http://www.w3.org/2000/svg"><path fill-rule="evenodd" clip-rule="evenodd" d="M58.996 40c0 11.045-8.95 20-19.996 20-11.045 0-20-8.955-20-20s8.955-20 20-20 19.996 8.955 19.996 20ZM39.157 51.154c-5.493.019-11.21-4.67-11.236-12.203-.018-4.979 2.671-9.774 6.103-12.618 3.351-2.77 7.94-4.553 12.1-4.567.536 0 1.099.044 1.44.161-3.637.754-6.533 4.141-6.522 7.981 0 .129.011.265.026.327 6.088 1.485 8.852 5.16 8.87 10.24.015 5.086-3.998 10.657-10.78 10.679Zm26.64-17.47 6.114 14.592h3.27l5.935-14.592h-3.814l-3.697 9.69-3.814-9.69h-3.994Zm25.747 5.49c.143.547.213 1.124.213 1.73 0 .63-.07 1.213-.213 1.75a4.343 4.343 0 0 1-.636 1.41 3.234 3.234 0 0 1-1.029.96c-.404.231-.878.349-1.422.349-.544 0-1.025-.118-1.437-.35a3.032 3.032 0 0 1-1.032-.958 4.568 4.568 0 0 1-.617-1.411 6.77 6.77 0 0 1-.213-1.75c0-.606.07-1.182.213-1.73.14-.547.352-1.018.635-1.41.28-.398.625-.71 1.03-.942.4-.235.877-.352 1.421-.352s1.018.117 1.422.352c.404.232.746.544 1.03.941.282.393.495.864.635 1.411Zm3.468 4.55a9.25 9.25 0 0 0 .438-2.803c0-.948-.147-1.874-.438-2.785a7.385 7.385 0 0 0-1.319-2.437 6.548 6.548 0 0 0-2.179-1.723c-.867-.433-1.888-.654-3.057-.654-1.172 0-2.197.22-3.072.654a6.382 6.382 0 0 0-2.182 1.723 7.622 7.622 0 0 0-1.301 2.437 9.114 9.114 0 0 0-.437 2.785c0 .951.147 1.885.437 2.803a7.769 7.769 0 0 0 1.3 2.466 6.466 6.466 0 0 0 2.183 1.756c.875.445 1.9.665 3.072.665 1.169 0 2.194-.22 3.072-.665a6.416 6.416 0 0 0 2.179-1.756 7.704 7.704 0 0 0 1.304-2.466Zm9.693-7.254c.625 0 1.298.143 2.022.426v7.231c-.203.342-.544.643-1.026.897-.481.25-.951.378-1.414.378-.563 0-1.051-.128-1.463-.378a3.21 3.21 0 0 1-1.021-1.003 4.507 4.507 0 0 1-.603-1.46 7.557 7.557 0 0 1-.198-1.745 5.627 5.627 0 0 1 .228-1.594 4.47 4.47 0 0 1 .676-1.4 3.26 3.26 0 0 1 1.146-.985c.459-.242 1.014-.367 1.653-.367Zm2.172 10.689.151 1.117h3.45V28.085h-3.751v5.658c-.886-.279-1.713-.422-2.477-.422-1.165 0-2.183.22-3.046.654a6.405 6.405 0 0 0-2.16 1.723 7.37 7.37 0 0 0-1.283 2.436 9.425 9.425 0 0 0-.419 2.785c0 1.011.136 1.98.404 2.907.272.93.673 1.749 1.194 2.455a5.94 5.94 0 0 0 1.933 1.693c.761.423 1.65.636 2.653.636.764 0 1.429-.147 1.992-.44.565-.291 1.017-.63 1.359-1.011Zm12.919-5.618c.427-.048.846-.086 1.25-.107v2.969a4.23 4.23 0 0 1-1.172.757c-.447.2-.93.302-1.419.301-.65 0-1.15-.147-1.506-.437-.357-.294-.533-.684-.533-1.165 0-.467.158-.893.47-1.29.316-.393.878-.669 1.694-.83.403-.084.808-.15 1.216-.198Zm1.404 5.632.147 1.092h3.425v-9.377c0-.989-.136-1.83-.408-2.525-.276-.698-.654-1.271-1.136-1.723a4.479 4.479 0 0 0-1.727-1c-.665-.213-1.403-.32-2.212-.32-.683 0-1.326.067-1.921.2-.596.131-1.128.293-1.602.484a8.29 8.29 0 0 0-1.213.592 5.312 5.312 0 0 0-.742.514l1.242 2.631c.143-.121.33-.257.562-.408.235-.15.503-.301.808-.455a5.3 5.3 0 0 1 1.033-.375 4.715 4.715 0 0 1 1.22-.155c.727 0 1.301.173 1.716.515.419.345.624.918.624 1.727v.213c-.385.04-.867.084-1.444.136a14.35 14.35 0 0 0-1.594.224 10.52 10.52 0 0 0-1.974.548 6.409 6.409 0 0 0-1.671.937 4.192 4.192 0 0 0-1.154 1.407c-.287.555-.426 1.198-.426 1.922 0 .727.135 1.378.411 1.954a4.43 4.43 0 0 0 1.077 1.452c.444.393.955.698 1.536.907.573.213 1.179.32 1.807.32a5.47 5.47 0 0 0 2.066-.382 4.163 4.163 0 0 0 1.55-1.055Zm14.459-16.017c.353.11.588.199.709.258l.423-3.116c-.1-.063-.449-.176-1.044-.35-.595-.172-1.345-.257-2.252-.257a6.14 6.14 0 0 0-1.911.287 3.972 3.972 0 0 0-1.529.911c-.433.412-.771.948-1.014 1.602-.242.658-.363 1.46-.363 2.407v.786h-1.937v3.028h1.937v11.564h3.755V36.712h3.119v-3.028h-3.149v-.694c0-.706.177-1.216.53-1.529.352-.312.793-.47 1.315-.47.588 0 1.055.055 1.411.165Zm10.729 8.018c.14.547.214 1.124.214 1.73 0 .63-.074 1.213-.214 1.75a4.332 4.332 0 0 1-.635 1.41 3.238 3.238 0 0 1-1.029.96c-.404.231-.878.349-1.422.349-.544 0-1.025-.118-1.441-.35a3.048 3.048 0 0 1-1.028-.958 4.65 4.65 0 0 1-.621-1.411 6.919 6.919 0 0 1-.21-1.75c0-.606.07-1.182.21-1.73a4.29 4.29 0 0 1 .635-1.41c.283-.398.629-.71 1.033-.942.4-.235.878-.352 1.422-.352.544 0 1.018.117 1.422.352.404.232.746.544 1.029.941.283.393.496.864.635 1.411Zm3.465 4.55a9.139 9.139 0 0 0 .441-2.803c0-.948-.147-1.874-.441-2.785a7.303 7.303 0 0 0-1.315-2.437 6.546 6.546 0 0 0-2.179-1.723c-.867-.433-1.889-.654-3.057-.654-1.172 0-2.197.22-3.072.654a6.386 6.386 0 0 0-2.183 1.723 7.625 7.625 0 0 0-1.3 2.437 9.137 9.137 0 0 0 0 5.589 7.771 7.771 0 0 0 1.3 2.465 6.47 6.47 0 0 0 2.183 1.756c.874.445 1.9.665 3.072.665 1.168 0 2.194-.22 3.072-.665a6.426 6.426 0 0 0 2.179-1.756 7.614 7.614 0 0 0 1.3-2.466Zm12.093-3.771v8.323h3.755v-8.628c0-1.128-.128-2.098-.378-2.906-.254-.805-.61-1.463-1.077-1.966a4.16 4.16 0 0 0-1.664-1.106 6.246 6.246 0 0 0-2.12-.346c-.746 0-1.489.129-2.224.394a6.552 6.552 0 0 0-1.984 1.117l-.18-1.15h-3.421v14.59h3.752v-10.35a6.829 6.829 0 0 1 1.29-1 3.009 3.009 0 0 1 1.616-.455c.831 0 1.474.305 1.94.907.463.607.695 1.466.695 2.576Zm15.113-2.043c.173.371.279.812.32 1.316h-5.571c.103-.97.448-1.694 1.036-2.18.588-.484 1.206-.727 1.856-.727.305 0 .602.055.9.165.294.114.566.283.82.519.253.231.466.532.639.907Zm-4.185 6.673c-.691-.544-1.073-1.433-1.154-2.664h9.473v-.665c0-1.393-.166-2.594-.5-3.601-.331-1.01-.786-1.834-1.36-2.47a5.272 5.272 0 0 0-2.043-1.407 7.159 7.159 0 0 0-2.575-.455c-.93 0-1.801.172-2.62.514a6.422 6.422 0 0 0-2.15 1.485c-.613.646-1.098 1.444-1.451 2.392s-.529 2.039-.529 3.27c0 1.312.191 2.443.577 3.391.382.948.896 1.738 1.543 2.374a6.059 6.059 0 0 0 2.252 1.411c.86.301 1.76.452 2.712.452a11.9 11.9 0 0 0 2.058-.165 12.813 12.813 0 0 0 1.635-.394 7.074 7.074 0 0 0 1.165-.485c.312-.172.54-.308.683-.407l-.999-3.061a2.937 2.937 0 0 1-.548.397c-.242.14-.536.283-.882.422a6.572 6.572 0 0 1-1.187.35 7.336 7.336 0 0 1-1.429.135c-1.091 0-1.984-.275-2.671-.82Z" fill="#fff"/></svg>
